X:83
T:Noble Squire Dacre
Z:Jack Campin, http://www.campin.me.uk/
S:Northumbrian Minstrelsy
M:6/8
L:1/16
K:G
B3`AG2  G3FG2|G3`AB2 TA4  G2|c3`BA2  A3`BA2|c3`ec2  e2f2g2 |
B3`AG2  G3AG2|G3`AB2 TA4  G2|c3`ec2  d2e2f2|g4  B2 TA4  G2:|
B2GABG Td4 G2|B2GABG Td4  G2|c2ABcA Te4  A2|c2ABcA Te2f2g2 |
B2GABG Td4 G2|B2GABG Td2c2B2|c2e2c2  d2e2f2|g4  B2 TA4  G2:|

